X:593
T:
S:Ur minnet upptecknad, bekant över hela ön. Jag erinrar mig ej, vem som lärt mig den först.
R:schottis
O:Gotland
M:2/4
L:1/16
K:G
D2|G2A2 B2c2|dedc B2e2|dedc A2c2|BcBA G2D2|G2A2 B2c2|dedc B2e2|dedc
A2BA|G2G2G2::g2|e2c2 g2fe|d2B2 e2d2|c2A2 dedc|BcBA G2gf|e2c2 g2fe|d2B2
e2d2|c2A2 D2FA|G2G2G2:|

